outputs/icons/general/chat_sync_outline_round.svg

<svg xmlns="http://www.w3.org/2000/svg" width="1200" height="1250" fill="none"><path fill="#000" fill-rule="evenodd" d="M601.875 199.841c-221.853 0-401.7 179.03-401.7 399.874 0 69.285 17.727 134.535 48.93 191.41l-92.276 165.99c-1.304 20.26 21.02 42.48 43.335 42.48h401.711c221.85 0 401.695-179.035 401.695-399.88 0-220.844-179.845-399.874-401.695-399.874M300.169 599.715c0-164.61 134.053-298.054 299.416-298.054 165.36 0 299.41 133.444 299.41 298.054s-134.05 298.06-299.41 298.06H306.803s40.728-74.005 49.195-88.195c8.466-14.195 4.214-27.975 0-35.025-40.986-61.43-55.829-119.215-55.829-174.84"/></svg>

<svg width="1200" height="1200" viewBox="0 0 1200 1200" fill="none" xmlns="http://www.w3.org/2000/svg"><path fill-rule="evenodd" d="M601.865 199.841C380.016 199.841 200.169 378.871 200.169 599.715C200.169 669 217.896 734.25 249.098 791.125L156.823 957.115C155.519 977.375 177.843 999.595 200.159 999.595H601.865C823.715 999.595 1003.565 820.56 1003.565 599.715C1003.565 378.871 823.715 199.841 601.865 199.841ZM300.163 599.715C300.163 435.105 434.216 301.661 599.575 301.661C764.935 301.661 898.99 435.105 898.99 599.715C898.99 764.325 764.935 897.775 599.575 897.775H306.798C306.798 897.775 347.525 823.77 355.992 809.58C364.458 795.385 360.207 781.605 355.992 774.555C315.007 713.125 300.163 655.34 300.163 599.715Z" fill="#1D1E23"/></svg>
